src/assets/fleet-icons/system-attribute.svg

<svg width="20" height="21" viewBox="0 0 20 21" fill="none" xmlns="http://www.w3.org/2000/svg">
    <path
        d="M4.7915 6.50521C4.7915 6.04497 5.1646 5.67188 5.62484 5.67188H14.3748C14.8351 5.67188 15.2082 6.04497 15.2082 6.50521V15.2552C15.2082 15.7154 14.8351 16.0885 14.3748 16.0885H5.62484C5.1646 16.0885 4.7915 15.7154 4.7915 15.2552V6.50521Z"
        stroke="currentColor" stroke-linecap="round" stroke-linejoin="round" />
</svg>

<svg width="20" height="21" fill="none" xmlns="http://www.w3.org/2000/svg">
    <path
        d="M4.792 6.505c0-.46.373-.833.833-.833h8.75c.46 0 .833.373.833.833v8.75c0 .46-.373.833-.833.833h-8.75a.833.833 0 0 1-.833-.833v-8.75Z"
        stroke="currentColor" stroke-linecap="round" stroke-linejoin="round" />
</svg>
